X:59
T: UFM BERGLI BIN I GESESSE
N: F0152
O: Europa, Mitteleuropa, Deutschland; Schweiz
R: Liebes - Lied
M: 3/4
L: 1/8
K: C
E,F, | G,EC2E,F, | G,EC2
G,G, | G,F,D2F,F, | E,3z
E,F, | G,ED2F,F, | E,CB,2
F,D, | B,A,G,2F,D, | C,3z
E,B,C | E2D2G,B,D | F2E2
CEG | A3GDE | C4

